X: 3246
T: Behind The Bush In The Garden
R: jig
M: 6/8
K: Adorian
|:c2A AGE|c2A AGE|G2E D2E|G3 EFG|
A2B c2d|eag e2d|cBA BAG|A3 A2B:|
|:c2B c2d|efg e2d|c2B c2d|e2A A2B|
c2B c2d|eag e2d|cBA BAG|A3 A2B:|

